Papirus/16x16/apps/google-chrome-unstable.svg

<svg xmlns="http://www.w3.org/2000/svg" width="16" height="16" version="1">
 <path style="fill:#f66f6f" d="m1.0776 12.017c1.4012 2.4293 3.8695 3.835 6.4627 3.9832 2.7647-1.526 4.2307-3.465 3.5147-6.0996-0.303 0.4946-0.723 0.9226-1.2621 1.2346-0.8564 0.495-1.6493-0.025-2.5321-0.257-0.8948-0.235-1.8771-0.191-2.3783-1.0601l-3.5697-6.1889c-1.6066 2.4433-1.8012 5.6727-0.23516 8.3877z"/>
 <path style="fill:#e58989" d="m8.1074219 4c0.5792 0.015661 1.1603187 0.5693994 1.6992187 0.8808594 0.9216804 0.53264 0.8352024 1.584975 1.0390624 2.546875 0.17761 0.83803 1.065153 1.6825281 0.601563 2.4863281l-3.8906254 6.0644535a8 8 0 0 0 0.1035156 0.005859c0.3181752 0.01432 0.6356838 0.013854 0.9511719-0.009766a8 8 0 0 0 0.1777344 -0.021484c0.2529934-0.024681 0.5050315-0.06275 0.7539063-0.111328a8 8 0 0 0 0.3652343 -0.080078c0.2103489-0.051414 0.4175229-0.11327 0.6230469-0.181641a8 8 0 0 0 0.306641 -0.103516c0.27927-0.105704 0.553706-0.22633 0.820312-0.363281a8 8 0 0 0 0.322266 -0.185547c0.177318-0.101847 0.351695-0.208343 0.521484-0.324218a8 8 0 0 0 0.310547 -0.220704c0.201482-0.152228 0.396107-0.315681 0.583984-0.488281a8 8 0 0 0 0.154297 -0.136719c0.23811-0.230497 0.46245-0.478595 0.673828-0.742187a8 8 0 0 0 0.126953 -0.167969c0.192702-0.253628 0.375557-0.519016 0.541016-0.800781a8 8 0 0 0 0.046875 -0.078125c0.691253-1.209252 1.034143-2.6162256 1.058594-4.0117188 0.003283-0.1873937-0.013418-0.3721923-0.021485-0.5585937a8 8 0 0 0 -1.060546 -3.3984375h-6.8085941z"/>
 <path style="fill:#e64646" d="m8 0a8 8 0 0 0 -0.3984375 0.013671875c-1.3967107 0.069523137-2.7712496 0.54380334-3.9628906 1.28125a8 8 0 0 0 -2.75 3.0566406l3.6914062 5.7265625c-0.3008147-0.4952059-0.149286-1.2845618-0.1796875-1.90625-0.0520376-1.0632458 0.8783731-1.5611673 1.5761719-2.2539062 0.6079375-0.6035327 0.8369145-1.8054014 1.7636719-1.8515626l7.2050776-0.0175781a8 8 0 0 0 -6.945312 -4.0488281z"/>
 <rect fill="#fff" width="8" height="8" x="-12" y="-12" rx="4" ry="4" transform="matrix(0,-1,-1,0,0,0)"/>
 <rect fill="#e64646" width="6" height="6" x="-11" y="-11" rx="3" ry="3" transform="matrix(0,-1,-1,0,0,0)"/>
</svg>

<svg xmlns="http://www.w3.org/2000/svg" width="16" height="16" version="1">
 <path style="fill:#f66f6f" d="M 1.078,12.017 C 2.479,14.446 4.947,15.852 7.541,16 10.306,14.474 11.772,12.535 11.056,9.9 10.753,10.395 10.333,10.823 9.794,11.135 8.938,11.63 8.145,11.11 7.262,10.878 6.367,10.643 5.385,10.687 4.884,9.818 L 1.314,3.629 C -0.293,6.072 -0.487,9.302 1.079,12.017 Z"/>
 <path style="fill:#e58989" d="M 8.107,4 C 8.687,4.016 9.268,4.569 9.807,4.881 10.728,5.413 10.642,6.466 10.846,7.428 11.023,8.266 11.911,9.11 11.447,9.914 L 7.557,15.979 C 7.591,15.981 7.626,15.983 7.66,15.984 7.978,15.999 8.296,15.998 8.611,15.975 12.219,15.579 14.03,13.504 14.939,11.969 15.631,10.759 15.974,9.352 15.998,7.957 16.001,7.77 15.985,7.585 15.977,7.398 15.883,6.2 15.52,5.039 14.916,4 Z"/>
 <path style="fill:#e64646" d="M 8,0 A 8,8 0 0 0 7.602,0.014 C 6.205,0.084 4.831,0.558 3.639,1.295 A 8,8 0 0 0 0.889,4.352 L 4.58,10.079 C 4.279,9.584 4.431,8.794 4.4,8.173 4.348,7.11 5.278,6.612 5.976,5.919 6.584,5.315 6.813,4.114 7.74,4.067 L 14.945,4.049 A 8,8 0 0 0 8,0 Z"/>
 <circle style="fill:#ffffff" cx="8" cy="8" r="4"/>
 <circle style="fill:#e64646" cx="8" cy="8" r="3"/>
</svg>
